build/img/icons/whatsapp-icon.svg

<svg width="43" height="40" viewBox="0 0 43 40" fill="none" xmlns="http://www.w3.org/2000/svg">
<path d="M21.209 0H21.1126C9.45244 0 0 8.93392 0 19.9545V20.0455C0 31.0661 9.45244 40 21.1126 40H21.209C32.8691 40 42.3216 31.0661 42.3216 20.0455V19.9545C42.3216 8.93392 32.8691 0 21.209 0Z" fill="#88AB8E"/>
<path d="M25.2836 25.8505C19.8671 25.8505 15.4605 21.6842 15.459 16.5649C15.4605 15.2672 16.5785 14.2119 17.9485 14.2119C18.0894 14.2119 18.2287 14.2231 18.3622 14.2455C18.6557 14.2918 18.9345 14.3857 19.191 14.5272C19.2281 14.5482 19.2533 14.5819 19.2592 14.6211L19.8316 18.0307C19.839 18.07 19.8256 18.1106 19.7975 18.14C19.4816 18.4708 19.0783 18.709 18.6291 18.8281L18.4126 18.8856L18.4941 19.0832C19.2325 20.8601 20.736 22.2797 22.6176 22.9804L22.8267 23.0589L22.8875 22.8543C23.0135 22.4297 23.2656 22.0485 23.6155 21.75C23.6407 21.7276 23.6748 21.7164 23.7089 21.7164C23.7163 21.7164 23.7237 21.7164 23.7326 21.7178L27.3401 22.2587C27.3831 22.2657 27.4187 22.2881 27.4409 22.3232C27.5892 22.5656 27.6886 22.8305 27.739 23.108C27.7627 23.2313 27.7731 23.3616 27.7731 23.4976C27.7731 24.7938 26.6566 25.8491 25.2836 25.8505Z" fill="#EEE7DA"/>
<path d="M34.8896 18.8768C34.5975 15.7573 33.0851 12.8635 30.6312 10.7291C28.1624 8.58219 24.9597 7.39941 21.6102 7.39941C14.2589 7.39941 8.27753 13.0526 8.27753 20.0007C8.27753 22.3327 8.95809 24.6043 10.2466 26.5831L7.37305 32.5951L16.5734 31.6688C18.1733 32.2882 19.8665 32.6021 21.6087 32.6021C22.0669 32.6021 22.5369 32.5797 23.0085 32.5334C23.4236 32.4914 23.8432 32.4297 24.2554 32.3512C30.4117 31.1755 34.9059 26.0113 34.9415 20.068V20.0007C34.9415 19.6224 34.9237 19.244 34.8881 18.8782L34.8896 18.8768ZM16.9278 29.0299L11.8376 29.5428L13.3574 26.3603L13.0534 25.9749C13.0312 25.9469 13.0089 25.9188 12.9837 25.8866C11.6641 24.1643 10.9672 22.1295 10.9672 20.0022C10.9672 14.4554 15.7416 9.94295 21.6102 9.94295C27.1082 9.94295 31.7684 13.9972 32.2177 19.1725C32.2414 19.45 32.2548 19.7289 32.2548 20.0036C32.2548 20.082 32.2533 20.1591 32.2518 20.2418C32.1391 24.8818 28.7095 28.8225 23.9114 29.8259C23.5452 29.903 23.1701 29.9619 22.7964 29.9997C22.4079 30.0417 22.0091 30.0628 21.6132 30.0628C20.2031 30.0628 18.8331 29.8049 17.5387 29.2948C17.3948 29.2401 17.254 29.1813 17.122 29.121L16.9293 29.0327L16.9278 29.0299Z" fill="#EEE7DA"/>
</svg>

<svg width="43" height="40" fill="none" xmlns="http://www.w3.org/2000/svg"><path d="M21.209 0h-.096C9.453 0 0 8.934 0 19.954v.091C0 31.067 9.452 40 21.113 40h.096c11.66 0 21.113-8.934 21.113-19.954v-.091C42.322 8.933 32.869 0 21.209 0Z" fill="#88AB8E"/><path d="M25.284 25.85c-5.417 0-9.823-4.166-9.825-9.285.002-1.298 1.12-2.353 2.49-2.353.14 0 .28.011.413.034.294.046.573.14.829.281a.132.132 0 0 1 .068.094l.573 3.41a.126.126 0 0 1-.035.109c-.315.33-.719.569-1.168.688l-.216.058.081.197c.739 1.777 2.242 3.197 4.124 3.897l.209.079.06-.205c.127-.424.379-.805.729-1.104a.14.14 0 0 1 .093-.034c.007 0 .015 0 .024.002l3.607.54c.043.008.079.03.1.065a2.279 2.279 0 0 1 .333 1.175c0 1.296-1.116 2.351-2.49 2.352Z" fill="#EEE7DA"/><path d="M34.89 18.877c-.293-3.12-1.805-6.013-4.259-8.148-2.469-2.147-5.671-3.33-9.02-3.33-7.352 0-13.333 5.654-13.333 12.602 0 2.332.68 4.603 1.969 6.582l-2.874 6.012 9.2-.926c1.6.62 3.293.933 5.036.933a14.167 14.167 0 0 0 2.646-.251c6.157-1.175 10.65-6.34 10.686-12.283v-.067c0-.379-.017-.757-.053-1.123l.002-.001ZM16.928 29.03l-5.09.513 1.52-3.183-.305-.385-.07-.088c-1.319-1.723-2.016-3.758-2.016-5.885 0-5.547 4.775-10.059 10.643-10.059 5.498 0 10.158 4.054 10.608 9.23a9.8 9.8 0 0 1 .037.83l-.003.239c-.113 4.64-3.543 8.58-8.34 9.584-.367.077-.742.136-1.116.174a11.05 11.05 0 0 1-1.183.063 11.061 11.061 0 0 1-4.491-.942l-.193-.088-.001-.003Z" fill="#EEE7DA"/></svg>
